X:1
T:Spring Is Here
C:Lorenz Hart & Richard Rodgers
L:1/4
M:C
I:linebreak $
K:Ab
"E7" G2 z A |"Fm/Eb" F4 |"Dø" G G/G/"Db7" G A |"Cm" F2"Fm" F2 |$"Ebm" E2"Ab7" z F |
"Dbm" D2"Gb7" z2 |"Cø" E E/E/"B7" E F |"Bbm" D2"A7" D2 |$"Ab" C D"Bbm" E F |"Cm" G A"Fm" B cOx///||
"Bbm" F2"Bbm/Ab" z2 |"G+" G2"Gb7" A2 |$"Fm" C =D"FmM" =E F |"Fm" G A"Fm/Eb" B c |"Bm" =d2"E7" z2 |
"Bbm" e2"Eb7""_D.C. al Coda" z2 ||$Ox/"Bm" =d2"E7" z2 |"Bbm" e2"Bbo" z2 |"Cm" e2"Fm" A2 |
"Bbm" c2"A7" B2 |"Ab6" A4 | z4 |]


